X:173
T: Cold Frosty Morning II
R: reel
M: 4/4
L: 1/8
K: Ador
|"Am"EDEG A2 AB|cAcd e2 (3DEF|"G"G2BAG2GF|GABcd4|
| "Am"EDEGA2AB|cAcde2AB|cBAc "G"BAG2|"Am"A4A4 :|
|"Am"e2a2a4|abag edce|"G"edef gagf|edcd"E7"e4 |
| "Am"A4"C(Am/g)"c2c2|"D(F)"dcd2"E"e2AB|"Am(Dm)"cBAc "G(Em)"BAG2|"Am"A4A4:|
